Yaru++/status/symbolic/network-cellular-acquiring-symbolic.svg

<svg height="16" width="16" xmlns="http://www.w3.org/2000/svg">
  <g fill="#808080">
    <path d="m15 .293-4.707 4.707h1.414l2.293-2.293v11.293h-11.293l4-4h-1.414l-4.146 4.146-.854.854h14.707z" opacity=".5"/>
    <path d="m3.5 6c-.829 0-1.496.667-1.496 1.496v.016c0 .829.667 1.496 1.496 1.496h.016c.83 0 1.496-.667 1.496-1.496v-.016c0-.829-.667-1.496-1.496-1.496zm4 0c-.829 0-1.496.667-1.496 1.496v.016c0 .829.667 1.496 1.496 1.496h.016c.83 0 1.496-.667 1.496-1.496v-.016c0-.829-.667-1.496-1.496-1.496zm4 0c-.829 0-1.496.667-1.496 1.496v.016c0 .829.667 1.496 1.496 1.496h.016c.83 0 1.496-.667 1.496-1.496v-.016c0-.829-.667-1.496-1.496-1.496z" display="block"/>
  </g>
</svg>

<svg height="16" width="16" xmlns="http://www.w3.org/2000/svg">
    <g color="#000" fill="gray">
        <path d="M15 .293L10.293 5h1.414L14 2.707V14H2.707l4-4H5.293l-4.146 4.146L.293 15H15z" font-family="sans-serif" font-weight="400" opacity=".5" overflow="visible" style="line-height:normal;font-variant-ligatures:normal;font-variant-position:normal;font-variant-caps:normal;font-variant-numeric:normal;font-variant-alternates:normal;font-feature-settings:normal;text-indent:0;text-align:start;text-decoration-line:none;text-decoration-style:solid;text-decoration-color:#000;text-transform:none;text-orientation:mixed;shape-padding:0;isolation:auto;mix-blend-mode:normal;marker:none"/>
        <path d="M3.5 6c-.829 0-1.496.667-1.496 1.496v.016c0 .829.667 1.496 1.496 1.496h.016c.83 0 1.496-.667 1.496-1.496v-.016C5.012 6.667 4.345 6 3.516 6zm4 0c-.829 0-1.496.667-1.496 1.496v.016c0 .829.667 1.496 1.496 1.496h.016c.83 0 1.496-.667 1.496-1.496v-.016C9.012 6.667 8.345 6 7.516 6zm4 0c-.829 0-1.496.667-1.496 1.496v.016c0 .829.667 1.496 1.496 1.496h.016c.83 0 1.496-.667 1.496-1.496v-.016c0-.829-.667-1.496-1.496-1.496z" display="block" overflow="visible" style="isolation:auto;mix-blend-mode:normal;marker:none"/>
    </g>
</svg>
